16x16/panel/mintupdate-updates-available.svg

<svg height="16" width="16" xmlns="http://www.w3.org/2000/svg"><path d="m16 13.5a1.5 1.5 0 0 1 -1.5 1.5 1.5 1.5 0 0 1 -1.5-1.5 1.5 1.5 0 0 1 1.5-1.5 1.5 1.5 0 0 1 1.5 1.5z" fill="#5294e2"/><g fill="#bebebe"><path d="m8 4a1 1 0 1 1 0 2 1 1 0 0 1 0-2zm-2 3h3v5h-2v-4h-1z"/><path d="m8 .943-.324.112-5.676 1.945v.715c0 3.416-.065 5.308.676 6.969.747 1.673 2.235 2.692 4.826 4.183l.498.287.498-.287c2.591-1.491 4.08-2.51 4.826-4.183.741-1.66.676-3.553.676-6.97v-.714zm0 1.057 5 1.715c0 3.419.016 5.203-.59 6.56-.606 1.358-1.849 2.251-4.41 3.725-2.561-1.474-3.804-2.368-4.41-3.725s-.59-3.14-.59-6.56z"/></g></svg>

<svg height="16" width="16" xmlns="http://www.w3.org/2000/svg">
    <path d="M16 13.5a1.5 1.5 0 0 1-1.5 1.5 1.5 1.5 0 0 1-1.5-1.5 1.5 1.5 0 0 1 1.5-1.5 1.5 1.5 0 0 1 1.5 1.5z" fill="#00caff"/>
    <g fill="#bebebe">
        <path d="M8 4a1 1 0 1 1 0 2 1 1 0 0 1 0-2zM6 7h3v5H7V8H6z"/>
        <path d="m8 .943-.324.112L2 3v.715c0 3.416-.065 5.308.676 6.969.747 1.673 2.235 2.692 4.826 4.183l.498.287.498-.287c2.591-1.491 4.08-2.51 4.826-4.183.741-1.66.676-3.553.676-6.97V3zM8 2l5 1.715c0 3.419.016 5.203-.59 6.56C11.804 11.633 10.561 12.526 8 14c-2.561-1.474-3.804-2.368-4.41-3.725S3 7.135 3 3.715z"/>
    </g>
</svg>
